assets/Keycap 10/Flat/keycap_10_flat.svg

<svg width="32" height="32" viewBox="0 0 32 32" fill="none" xmlns="http://www.w3.org/2000/svg">
<path d="M2 6C2 3.79086 3.79086 2 6 2H26C28.2091 2 30 3.79086 30 6V26C30 28.2091 28.2091 30 26 30H6C3.79086 30 2 28.2091 2 26V6Z" fill="#00A6ED"/>
<path d="M20 7.75C16.6863 7.75 14 10.4363 14 13.75V18.25C14 21.5637 16.6863 24.25 20 24.25C23.3137 24.25 26 21.5637 26 18.25V13.75C26 10.4363 23.3137 7.75 20 7.75ZM17.5 13.75C17.5 12.3693 18.6193 11.25 20 11.25C21.3807 11.25 22.5 12.3693 22.5 13.75V18.25C22.5 19.6307 21.3807 20.75 20 20.75C18.6193 20.75 17.5 19.6307 17.5 18.25V13.75Z" fill="white"/>
<path d="M11.9999 9.50006C11.9999 8.78446 11.5643 8.14096 10.8998 7.87521C10.2354 7.60946 9.47612 7.77501 8.98263 8.29324L5.80838 11.6266C5.14187 12.3265 5.16895 13.4342 5.86886 14.1007C6.56878 14.7672 7.67649 14.7402 8.343 14.0402L8.49994 13.8754V22.5001C8.49994 23.4666 9.28344 24.2501 10.2499 24.2501C11.2164 24.2501 11.9999 23.4666 11.9999 22.5001V9.50006Z" fill="white"/>
</svg>

<svg xmlns="http://www.w3.org/2000/svg" width="32" height="32" fill="none"><path fill="#00A6ED" d="M2 6a4 4 0 0 1 4-4h20a4 4 0 0 1 4 4v20a4 4 0 0 1-4 4H6a4 4 0 0 1-4-4V6Z"/><path fill="#fff" d="M20 7.75a6 6 0 0 0-6 6v4.5a6 6 0 0 0 12 0v-4.5a6 6 0 0 0-6-6Zm-2.5 6a2.5 2.5 0 0 1 5 0v4.5a2.5 2.5 0 0 1-5 0v-4.5ZM12 9.5a1.75 1.75 0 0 0-3.017-1.207l-3.175 3.334a1.75 1.75 0 1 0 2.535 2.413l.157-.165V22.5a1.75 1.75 0 1 0 3.5 0v-13Z"/></svg>
